thumb-up.svg

<svg fill="currentColor" viewBox="0 0 24 24"><path d="M23 10a2 2 0 0 0-2-2h-6.32l.96-4.57c.02-.1.03-.21.03-.32 0-.41-.17-.79-.44-1.06L14.17 1 7.59 7.58C7.22 7.95 7 8.45 7 9v10a2 2 0 0 0 2 2h9c.83 0 1.54-.5 1.84-1.22l3.02-7.05c.09-.23.14-.47.14-.73zM1 21h4V9H1z"/></svg>

<svg  viewBox="0 0 24 24" fill="currentColor"><path  d="M23,10C23,8.89 22.1,8 21,8H14.68L15.64,3.43C15.66,3.33 15.67,3.22 15.67,3.11C15.67,2.7 15.5,2.32 15.23,2.05L14.17,1L7.59,7.58C7.22,7.95 7,8.45 7,9V19A2,2 0 0,0 9,21H18C18.83,21 19.54,20.5 19.84,19.78L22.86,12.73C22.95,12.5 23,12.26 23,12V10M1,21H5V9H1V21Z"/></svg>
